X:4
T: Liu zhi dan
N: C0005
O: China, Shaanxi, Shanbei
S: I, 40, 2)]
N: neues Volkslied; sehr bekannt. Total verkratzte Schallplatte.
N: Arrangiert f. Klv. und Oboe. Text mit Mao Zidong.
R: Xiaodiao, Da ningxia diao. Geming lishi minge]
M: 2/4
L: 1/16
K: Ab
e3cB2A2 | B2E2F4 |
e3cB2AA | B2E2F4 |
e3fe2f2 | e2c2B4 |
A2A4F2 | E2C2B,4 |
e2ecB2e2 | B4A2F2 | E2F2E2C2 | B,8

